Newaita-dark/apps/16/stage.svg

<svg height="16" viewBox="0 0 16 16" width="16" xmlns="http://www.w3.org/2000/svg" xmlns:xlink="http://www.w3.org/1999/xlink"><linearGradient id="a" gradientUnits="userSpaceOnUse" x1="7.93826" x2="7.93826" y1="14.0169685" y2="14.67849050002"><stop offset="0" stop-opacity=".27451"/><stop offset="1" stop-opacity="0"/></linearGradient><linearGradient id="b"><stop offset="0" stop-opacity=".313726"/><stop offset=".222222" stop-opacity=".27451"/><stop offset="1" stop-opacity="0"/></linearGradient><radialGradient id="c" cx="450.908936" cy="189.579361" gradientTransform="matrix(.00000009 -.0390662 -.0703192 -.00000005 26.561465 31.797666)" gradientUnits="userSpaceOnUse" r="21.166656" xlink:href="#b"/><radialGradient id="d" cx="450.908936" cy="189.579361" gradientTransform="matrix(-.00000009 .0390662 .0703192 .00000005 -10.60226 -3.763739)" gradientUnits="userSpaceOnUse" r="21.166656" xlink:href="#b"/><radialGradient id="e" cx="450.908936" cy="189.579361" gradientTransform="matrix(-.00000009 -.0390662 .0703192 -.00000005 -10.60226 31.797666)" gradientUnits="userSpaceOnUse" r="21.166656" xlink:href="#b"/><radialGradient id="f" cx="450.908936" cy="189.579361" gradientTransform="matrix(.00000009 .0390662 -.0703192 .00000005 26.561464 -3.76374)" gradientUnits="userSpaceOnUse" r="21.166656" xlink:href="#b"/><linearGradient id="g" gradientUnits="userSpaceOnUse" x1="7.938262" x2="7.938262" y1="1.48939700003" y2="14.0583115"><stop offset="0" stop-color="#eee"/><stop offset="1" stop-color="#e0e0e0"/></linearGradient><linearGradient id="h" gradientUnits="userSpaceOnUse" x1="8.26902400003" x2="8.26902400003" y1="10.70935771879" y2="3.43261750003"><stop offset="0" stop-color="#ef5350"/><stop offset="1" stop-color="#e57373"/></linearGradient><linearGradient id="i" gradientUnits="userSpaceOnUse" x1="11.57662924997" x2="11.57663021881" y1="10.70935799997" y2="3.43261778121"><stop offset="0" stop-color="#66bb6a"/><stop offset="1" stop-color="#81c784"/></linearGradient><linearGradient id="j" gradientUnits="userSpaceOnUse" x1="3.96913224997" x2="3.96913321881" y1="10.70935499997" y2="3.43261715644"><stop offset="0" stop-color="#26a69a"/><stop offset="1" stop-color="#4db6ac"/></linearGradient><linearGradient id="k" gradientUnits="userSpaceOnUse" x1="6.61521824997" x2="6.61522018765" y1="10.70935799997" y2="3.43261850003"><stop offset="0" stop-color="#ffa726"/><stop offset="1" stop-color="#ffb74d"/></linearGradient><path d="m2.5625 14.015625h10.832031v.664063h-10.832031zm0 0" fill="url(#a)"/><path d="m13.394531 14.015625h1.324219v-.660156h-1.324219zm0 0" fill="url(#c)"/><path d="m2.5625 14.015625h-1.320312v.664063h1.320312zm0 0" fill="url(#d)"/><path d="m2.5625 14.015625h-1.320312v-.660156h1.320312zm0 0" fill="url(#e)"/><path d="m13.394531 14.015625h1.324219v.664063h-1.324219zm0 0" fill="url(#f)"/><path d="m1.820312 1.488281h12.238282c.273437 0 .496094.222657.496094.496094v11.578125c0 .273438-.222657.496094-.496094.496094h-12.238282c-.273437 0-.496093-.222656-.496093-.496094v-11.578125c0-.273437.222656-.496094.496093-.496094zm0 0" fill="url(#g)"/><path d="m1.820312 14.058594c-.277343 0-.496093-.222656-.496093-.496094v-.207031c0 .273437.21875.496093.496093.496093h12.238282c.273437 0 .496094-.222656.496094-.496093v.207031c0 .273438-.222657.496094-.496094.496094zm0 0" fill-opacity=".235294"/><path d="m1.820312 1.488281c-.277343 0-.496093.222657-.496093.496094v.207031c0-.273437.21875-.496094.496093-.496094h12.238282c.273437 0 .496094.222657.496094.496094v-.207031c0-.273437-.222657-.496094-.496094-.496094zm0 0" fill="#fff"/><path d="m1.820312 1.402344c-.300781 0-.542968.242187-.542968.542968v11.574219c0 .300781.242187.542969.542968.542969h12.238282c.296875 0 .542968-.242188.542968-.542969v-11.574219c0-.300781-.246093-.542968-.542968-.542968zm0 .09375h12.238282c.25 0 .449218.199218.449218.449218v11.574219c0 .25-.199218.449219-.449218.449219h-12.238282c-.25 0-.449218-.199219-.449218-.449219v-11.574219c0-.25.199218-.449218.449218-.449218zm0 0" fill="#212121"/><path d="m8.601562 8.726562h1.320313c.183594 0 .332031.144532.332031.328126v1.324218c0 .183594-.148437.332032-.332031.332032h-1.320313c-.183593 0-.332031-.148438-.332031-.332032v-1.324218c0-.183594.148438-.328126.332031-.328126zm0 0" fill="url(#h)"/><path d="m11.246094 4.425781h1.324218c.179688 0 .328126.148438.328126.328125v5.625c0 .183594-.148438.332032-.328126.332032h-1.324218c-.183594 0-.332032-.148438-.332032-.332032v-5.625c0-.179687.148438-.328125.332032-.328125zm0 0" fill="url(#i)"/><path d="m3.308594 3.433594h1.320312c.183594 0 .332032.148437.332032.328125v6.617187c0 .183594-.148438.332032-.332032.332032h-1.320312c-.183594 0-.332032-.148438-.332032-.332032v-6.617187c0-.179688.148438-.328125.332032-.328125zm0 0" fill="url(#j)"/><path d="m5.953125 6.738281h1.324219c.183594 0 .332031.148438.332031.332031v3.308594c0 .183594-.148437.332032-.332031.332032h-1.324219c-.183594 0-.332031-.148438-.332031-.332032v-3.308594c0-.183593.148437-.332031.332031-.332031zm0 0" fill="url(#k)"/><path d="m3.308594 3.433594c-.183594 0-.332032.148437-.332032.328125v.167969c0-.183594.148438-.332032.332032-.332032h1.320312c.183594 0 .332032.148438.332032.332032v-.167969c0-.179688-.148438-.328125-.332032-.328125zm7.9375.992187c-.183594 0-.332032.148438-.332032.328125v.167969c0-.183594.148438-.332031.332032-.332031h1.324218c.183594 0 .328126.148437.328126.332031v-.167969c0-.179687-.144532-.328125-.328126-.328125zm-5.292969 2.3125c-.183594 0-.332031.148438-.332031.332031v.167969c0-.183593.148437-.332031.332031-.332031h1.324219c.183594 0 .332031.148438.332031.332031v-.167969c0-.183593-.148437-.332031-.332031-.332031zm2.648437 1.988281c-.183593 0-.332031.144532-.332031.328126v.167968c0-.183594.148438-.332031.332031-.332031h1.320313c.183594 0 .332031.148437.332031.332031v-.167968c0-.183594-.148437-.328126-.332031-.328126zm0 0" fill="#fff" fill-opacity=".392157"/><path d="m2.976562 10.378906v.332032c0 .183593.148438.328124.332032.328124h1.320312c.183594 0 .332032-.144531.332032-.328124v-.332032c0 .183594-.148438.332032-.332032.332032h-1.320312c-.183594 0-.332032-.148438-.332032-.332032zm2.644532 0v.332032c0 .183593.148437.328124.332031.328124h1.324219c.183594 0 .332031-.144531.332031-.328124v-.332032c0 .183594-.148437.332032-.332031.332032h-1.324219c-.183594 0-.332031-.148438-.332031-.332032zm2.648437 0v.332032c0 .183593.148438.328124.332031.328124h1.320313c.183594 0 .332031-.144531.332031-.328124v-.332032c0 .183594-.148437.332032-.332031.332032h-1.320313c-.183593 0-.332031-.148438-.332031-.332032zm2.644531 0v.332032c0 .183593.148438.328124.332032.328124h1.324218c.183594 0 .328126-.144531.328126-.328124v-.332032c0 .183594-.144532.332032-.328126.332032h-1.324218c-.183594 0-.332032-.148438-.332032-.332032zm0 0" fill-opacity=".235294"/><g fill="none" stroke="#212121" stroke-linejoin="round" stroke-width="3" transform="matrix(.031253 0 0 .031253 0 6.719392)"><path d="m275.223717 64.223336h42.245966c5.874439 0 10.623986 4.624558 10.623986 10.498997v42.370954c0 5.874439-4.749547 10.623985-10.623986 10.623985h-42.245966c-5.874439 0-10.623985-4.749546-10.623985-10.623985v-42.370954c0-5.874439 4.749546-10.498997 10.623985-10.498997zm0 0"/><path d="m359.840637-73.388523h42.370954c5.749451 0 10.498997 4.749546 10.498997 10.498997v179.982813c0 5.874439-4.749546 10.623985-10.498997 10.623985h-42.370954c-5.874439 0-10.623986-4.749546-10.623986-10.623985v-179.982813c0-5.749451 4.749547-10.498997 10.623986-10.498997zm0 0"/><path d="m105.86489-105.135492h42.245966c5.874439 0 10.623986 4.749547 10.623986 10.498998v211.729781c0 5.874439-4.749547 10.623985-10.623986 10.623985h-42.245966c-5.874439 0-10.623985-4.749546-10.623985-10.623985v-211.729781c0-5.749451 4.749546-10.498998 10.623985-10.498998zm0 0"/><path d="m190.48181.604411h42.370954c5.874439 0 10.623985 4.749546 10.623985 10.623985v105.864891c0 5.874439-4.749546 10.623985-10.623985 10.623985h-42.370954c-5.874439 0-10.623986-4.749546-10.623986-10.623985v-105.864891c0-5.874439 4.749547-10.623985 10.623986-10.623985zm0 0"/></g></svg>

<?xml version="1.0" encoding="UTF-8"?>
<svg xmlns="http://www.w3.org/2000/svg" xmlns:xlink="http://www.w3.org/1999/xlink" width="16px" height="16px" viewBox="0 0 16 16" version="1.1">
<defs>
<linearGradient id="linear0" gradientUnits="userSpaceOnUse" x1="254" y1="233.5" x2="254" y2="254.666672" gradientTransform="matrix(0.031253,0,0,0.031253,-0.00000190753,6.719393)">
<stop offset="0" style="stop-color:rgb(0%,0%,0%);stop-opacity:0.27451;"/>
<stop offset="1" style="stop-color:rgb(0%,0%,0%);stop-opacity:0;"/>
</linearGradient>
<radialGradient id="radial0" gradientUnits="userSpaceOnUse" cx="450.908936" cy="189.579361" fx="450.908936" fy="189.579361" r="21.166656" gradientTransform="matrix(0.0000000870852,-0.0390662,-0.0703192,-0.0000000507693,26.561465,31.797666)">
<stop offset="0" style="stop-color:rgb(0%,0%,0%);stop-opacity:0.313726;"/>
<stop offset="0.222222" style="stop-color:rgb(0%,0%,0%);stop-opacity:0.27451;"/>
<stop offset="1" style="stop-color:rgb(0%,0%,0%);stop-opacity:0;"/>
</radialGradient>
<radialGradient id="radial1" gradientUnits="userSpaceOnUse" cx="450.908936" cy="189.579361" fx="450.908936" fy="189.579361" r="21.166656" gradientTransform="matrix(-0.0000000870852,0.0390662,0.0703192,0.0000000507693,-10.60226,-3.763739)">
<stop offset="0" style="stop-color:rgb(0%,0%,0%);stop-opacity:0.313726;"/>
<stop offset="0.222222" style="stop-color:rgb(0%,0%,0%);stop-opacity:0.27451;"/>
<stop offset="1" style="stop-color:rgb(0%,0%,0%);stop-opacity:0;"/>
</radialGradient>
<radialGradient id="radial2" gradientUnits="userSpaceOnUse" cx="450.908936" cy="189.579361" fx="450.908936" fy="189.579361" r="21.166656" gradientTransform="matrix(-0.0000000870852,-0.0390662,0.0703192,-0.0000000507693,-10.60226,31.797666)">
<stop offset="0" style="stop-color:rgb(0%,0%,0%);stop-opacity:0.313726;"/>
<stop offset="0.222222" style="stop-color:rgb(0%,0%,0%);stop-opacity:0.27451;"/>
<stop offset="1" style="stop-color:rgb(0%,0%,0%);stop-opacity:0;"/>
</radialGradient>
<radialGradient id="radial3" gradientUnits="userSpaceOnUse" cx="450.908936" cy="189.579361" fx="450.908936" fy="189.579361" r="21.166656" gradientTransform="matrix(0.0000000870852,0.0390662,-0.0703192,0.0000000507693,26.561464,-3.76374)">
<stop offset="0" style="stop-color:rgb(0%,0%,0%);stop-opacity:0.313726;"/>
<stop offset="0.222222" style="stop-color:rgb(0%,0%,0%);stop-opacity:0.27451;"/>
<stop offset="1" style="stop-color:rgb(0%,0%,0%);stop-opacity:0;"/>
</radialGradient>
<linearGradient id="linear1" gradientUnits="userSpaceOnUse" x1="254" y1="-168.666656" x2="254" y2="233.5" gradientTransform="matrix(0.031253,0,0,0.031253,0,6.760736)">
<stop offset="0" style="stop-color:rgb(93.333334%,93.333334%,93.333334%);stop-opacity:1;"/>
<stop offset="1" style="stop-color:rgb(87.843138%,87.843138%,87.843138%);stop-opacity:1;"/>
</linearGradient>
<linearGradient id="linear2" gradientUnits="userSpaceOnUse" x1="296.333344" y1="127.666679" x2="296.333344" y2="-105.166656" gradientTransform="matrix(0.031253,0,0,0.031253,-0.992282,6.719391)">
<stop offset="0" style="stop-color:rgb(93.725491%,32.549021%,31.37255%);stop-opacity:1;"/>
<stop offset="1" style="stop-color:rgb(89.803922%,45.09804%,45.09804%);stop-opacity:1;"/>
</linearGradient>
<linearGradient id="linear3" gradientUnits="userSpaceOnUse" x1="306.916656" y1="127.666656" x2="306.916687" y2="-105.166679" gradientTransform="matrix(0.031253,0,0,0.031253,1.984563,6.719392)">
<stop offset="0" style="stop-color:rgb(40.000001%,73.333335%,41.568628%);stop-opacity:1;"/>
<stop offset="1" style="stop-color:rgb(50.588238%,78.039217%,51.764709%);stop-opacity:1;"/>
</linearGradient>
<linearGradient id="linear4" gradientUnits="userSpaceOnUse" x1="306.916656" y1="127.666656" x2="306.916687" y2="-105.166603" gradientTransform="matrix(0.031253,0,0,0.031253,-5.622934,6.719389)">
<stop offset="0" style="stop-color:rgb(14.901961%,65.098041%,60.392159%);stop-opacity:1;"/>
<stop offset="1" style="stop-color:rgb(30.19608%,71.372551%,67.450982%);stop-opacity:1;"/>
</linearGradient>
<linearGradient id="linear5" gradientUnits="userSpaceOnUse" x1="306.916656" y1="127.666656" x2="306.916718" y2="-105.166656" gradientTransform="matrix(0.031253,0,0,0.031253,-2.976848,6.719392)">
<stop offset="0" style="stop-color:rgb(100%,65.490198%,14.901961%);stop-opacity:1;"/>
<stop offset="1" style="stop-color:rgb(100%,71.764708%,30.19608%);stop-opacity:1;"/>
</linearGradient>
</defs>
<g id="surface1">
<path style=" stroke:none;fill-rule:nonzero;fill:url(#linear0);" d="M 2.5625 14.015625 L 13.394531 14.015625 L 13.394531 14.679688 L 2.5625 14.679688 Z M 2.5625 14.015625 "/>
<path style=" stroke:none;fill-rule:nonzero;fill:url(#radial0);" d="M 13.394531 14.015625 L 14.71875 14.015625 L 14.71875 13.355469 L 13.394531 13.355469 Z M 13.394531 14.015625 "/>
<path style=" stroke:none;fill-rule:nonzero;fill:url(#radial1);" d="M 2.5625 14.015625 L 1.242188 14.015625 L 1.242188 14.679688 L 2.5625 14.679688 Z M 2.5625 14.015625 "/>
<path style=" stroke:none;fill-rule:nonzero;fill:url(#radial2);" d="M 2.5625 14.015625 L 1.242188 14.015625 L 1.242188 13.355469 L 2.5625 13.355469 Z M 2.5625 14.015625 "/>
<path style=" stroke:none;fill-rule:nonzero;fill:url(#radial3);" d="M 13.394531 14.015625 L 14.71875 14.015625 L 14.71875 14.679688 L 13.394531 14.679688 Z M 13.394531 14.015625 "/>
<path style=" stroke:none;fill-rule:nonzero;fill:url(#linear1);" d="M 1.820312 1.488281 L 14.058594 1.488281 C 14.332031 1.488281 14.554688 1.710938 14.554688 1.984375 L 14.554688 13.5625 C 14.554688 13.835938 14.332031 14.058594 14.058594 14.058594 L 1.820312 14.058594 C 1.546875 14.058594 1.324219 13.835938 1.324219 13.5625 L 1.324219 1.984375 C 1.324219 1.710938 1.546875 1.488281 1.820312 1.488281 Z M 1.820312 1.488281 "/>
<path style=" stroke:none;fill-rule:nonzero;fill:rgb(0%,0%,0%);fill-opacity:0.235294;" d="M 1.820312 14.058594 C 1.542969 14.058594 1.324219 13.835938 1.324219 13.5625 L 1.324219 13.355469 C 1.324219 13.628906 1.542969 13.851562 1.820312 13.851562 L 14.058594 13.851562 C 14.332031 13.851562 14.554688 13.628906 14.554688 13.355469 L 14.554688 13.5625 C 14.554688 13.835938 14.332031 14.058594 14.058594 14.058594 Z M 1.820312 14.058594 "/>
<path style=" stroke:none;fill-rule:nonzero;fill:rgb(100%,100%,100%);fill-opacity:1;" d="M 1.820312 1.488281 C 1.542969 1.488281 1.324219 1.710938 1.324219 1.984375 L 1.324219 2.191406 C 1.324219 1.917969 1.542969 1.695312 1.820312 1.695312 L 14.058594 1.695312 C 14.332031 1.695312 14.554688 1.917969 14.554688 2.191406 L 14.554688 1.984375 C 14.554688 1.710938 14.332031 1.488281 14.058594 1.488281 Z M 1.820312 1.488281 "/>
<path style=" stroke:none;fill-rule:nonzero;fill:rgb(12.941177%,12.941177%,12.941177%);fill-opacity:1;" d="M 1.820312 1.402344 C 1.519531 1.402344 1.277344 1.644531 1.277344 1.945312 L 1.277344 13.519531 C 1.277344 13.820312 1.519531 14.0625 1.820312 14.0625 L 14.058594 14.0625 C 14.355469 14.0625 14.601562 13.820312 14.601562 13.519531 L 14.601562 1.945312 C 14.601562 1.644531 14.355469 1.402344 14.058594 1.402344 Z M 1.820312 1.496094 L 14.058594 1.496094 C 14.308594 1.496094 14.507812 1.695312 14.507812 1.945312 L 14.507812 13.519531 C 14.507812 13.769531 14.308594 13.96875 14.058594 13.96875 L 1.820312 13.96875 C 1.570312 13.96875 1.371094 13.769531 1.371094 13.519531 L 1.371094 1.945312 C 1.371094 1.695312 1.570312 1.496094 1.820312 1.496094 Z M 1.820312 1.496094 "/>
<path style=" stroke:none;fill-rule:nonzero;fill:url(#linear2);" d="M 8.601562 8.726562 L 9.921875 8.726562 C 10.105469 8.726562 10.253906 8.871094 10.253906 9.054688 L 10.253906 10.378906 C 10.253906 10.5625 10.105469 10.710938 9.921875 10.710938 L 8.601562 10.710938 C 8.417969 10.710938 8.269531 10.5625 8.269531 10.378906 L 8.269531 9.054688 C 8.269531 8.871094 8.417969 8.726562 8.601562 8.726562 Z M 8.601562 8.726562 "/>
<path style=" stroke:none;fill-rule:nonzero;fill:url(#linear3);" d="M 11.246094 4.425781 L 12.570312 4.425781 C 12.75 4.425781 12.898438 4.574219 12.898438 4.753906 L 12.898438 10.378906 C 12.898438 10.5625 12.75 10.710938 12.570312 10.710938 L 11.246094 10.710938 C 11.0625 10.710938 10.914062 10.5625 10.914062 10.378906 L 10.914062 4.753906 C 10.914062 4.574219 11.0625 4.425781 11.246094 4.425781 Z M 11.246094 4.425781 "/>
<path style=" stroke:none;fill-rule:nonzero;fill:url(#linear4);" d="M 3.308594 3.433594 L 4.628906 3.433594 C 4.8125 3.433594 4.960938 3.582031 4.960938 3.761719 L 4.960938 10.378906 C 4.960938 10.5625 4.8125 10.710938 4.628906 10.710938 L 3.308594 10.710938 C 3.125 10.710938 2.976562 10.5625 2.976562 10.378906 L 2.976562 3.761719 C 2.976562 3.582031 3.125 3.433594 3.308594 3.433594 Z M 3.308594 3.433594 "/>
<path style=" stroke:none;fill-rule:nonzero;fill:url(#linear5);" d="M 5.953125 6.738281 L 7.277344 6.738281 C 7.460938 6.738281 7.609375 6.886719 7.609375 7.070312 L 7.609375 10.378906 C 7.609375 10.5625 7.460938 10.710938 7.277344 10.710938 L 5.953125 10.710938 C 5.769531 10.710938 5.621094 10.5625 5.621094 10.378906 L 5.621094 7.070312 C 5.621094 6.886719 5.769531 6.738281 5.953125 6.738281 Z M 5.953125 6.738281 "/>
<path style=" stroke:none;fill-rule:nonzero;fill:rgb(100%,100%,100%);fill-opacity:0.392157;" d="M 3.308594 3.433594 C 3.125 3.433594 2.976562 3.582031 2.976562 3.761719 L 2.976562 3.929688 C 2.976562 3.746094 3.125 3.597656 3.308594 3.597656 L 4.628906 3.597656 C 4.8125 3.597656 4.960938 3.746094 4.960938 3.929688 L 4.960938 3.761719 C 4.960938 3.582031 4.8125 3.433594 4.628906 3.433594 Z M 11.246094 4.425781 C 11.0625 4.425781 10.914062 4.574219 10.914062 4.753906 L 10.914062 4.921875 C 10.914062 4.738281 11.0625 4.589844 11.246094 4.589844 L 12.570312 4.589844 C 12.753906 4.589844 12.898438 4.738281 12.898438 4.921875 L 12.898438 4.753906 C 12.898438 4.574219 12.753906 4.425781 12.570312 4.425781 Z M 5.953125 6.738281 C 5.769531 6.738281 5.621094 6.886719 5.621094 7.070312 L 5.621094 7.238281 C 5.621094 7.054688 5.769531 6.90625 5.953125 6.90625 L 7.277344 6.90625 C 7.460938 6.90625 7.609375 7.054688 7.609375 7.238281 L 7.609375 7.070312 C 7.609375 6.886719 7.460938 6.738281 7.277344 6.738281 Z M 8.601562 8.726562 C 8.417969 8.726562 8.269531 8.871094 8.269531 9.054688 L 8.269531 9.222656 C 8.269531 9.039062 8.417969 8.890625 8.601562 8.890625 L 9.921875 8.890625 C 10.105469 8.890625 10.253906 9.039062 10.253906 9.222656 L 10.253906 9.054688 C 10.253906 8.871094 10.105469 8.726562 9.921875 8.726562 Z M 8.601562 8.726562 "/>
<path style=" stroke:none;fill-rule:nonzero;fill:rgb(0%,0%,0%);fill-opacity:0.235294;" d="M 2.976562 10.378906 L 2.976562 10.710938 C 2.976562 10.894531 3.125 11.039062 3.308594 11.039062 L 4.628906 11.039062 C 4.8125 11.039062 4.960938 10.894531 4.960938 10.710938 L 4.960938 10.378906 C 4.960938 10.5625 4.8125 10.710938 4.628906 10.710938 L 3.308594 10.710938 C 3.125 10.710938 2.976562 10.5625 2.976562 10.378906 Z M 5.621094 10.378906 L 5.621094 10.710938 C 5.621094 10.894531 5.769531 11.039062 5.953125 11.039062 L 7.277344 11.039062 C 7.460938 11.039062 7.609375 10.894531 7.609375 10.710938 L 7.609375 10.378906 C 7.609375 10.5625 7.460938 10.710938 7.277344 10.710938 L 5.953125 10.710938 C 5.769531 10.710938 5.621094 10.5625 5.621094 10.378906 Z M 8.269531 10.378906 L 8.269531 10.710938 C 8.269531 10.894531 8.417969 11.039062 8.601562 11.039062 L 9.921875 11.039062 C 10.105469 11.039062 10.253906 10.894531 10.253906 10.710938 L 10.253906 10.378906 C 10.253906 10.5625 10.105469 10.710938 9.921875 10.710938 L 8.601562 10.710938 C 8.417969 10.710938 8.269531 10.5625 8.269531 10.378906 Z M 10.914062 10.378906 L 10.914062 10.710938 C 10.914062 10.894531 11.0625 11.039062 11.246094 11.039062 L 12.570312 11.039062 C 12.753906 11.039062 12.898438 10.894531 12.898438 10.710938 L 12.898438 10.378906 C 12.898438 10.5625 12.753906 10.710938 12.570312 10.710938 L 11.246094 10.710938 C 11.0625 10.710938 10.914062 10.5625 10.914062 10.378906 Z M 10.914062 10.378906 "/>
<path style="fill:none;stroke-width:3;stroke-linecap:butt;stroke-linejoin:round;stroke:rgb(12.941177%,12.941177%,12.941177%);stroke-opacity:1;stroke-miterlimit:4;" d="M 275.223717 64.223336 L 317.469683 64.223336 C 323.344122 64.223336 328.093669 68.847894 328.093669 74.722333 L 328.093669 117.093287 C 328.093669 122.967726 323.344122 127.717272 317.469683 127.717272 L 275.223717 127.717272 C 269.349278 127.717272 264.599732 122.967726 264.599732 117.093287 L 264.599732 74.722333 C 264.599732 68.847894 269.349278 64.223336 275.223717 64.223336 Z M 275.223717 64.223336 " transform="matrix(0.031253,0,0,0.031253,0,6.719392)"/>
<path style="fill:none;stroke-width:3;stroke-linecap:butt;stroke-linejoin:round;stroke:rgb(12.941177%,12.941177%,12.941177%);stroke-opacity:1;stroke-miterlimit:4;" d="M 359.840637 -73.388523 L 402.211591 -73.388523 C 407.961042 -73.388523 412.710588 -68.638977 412.710588 -62.889526 L 412.710588 117.093287 C 412.710588 122.967726 407.961042 127.717272 402.211591 127.717272 L 359.840637 127.717272 C 353.966198 127.717272 349.216651 122.967726 349.216651 117.093287 L 349.216651 -62.889526 C 349.216651 -68.638977 353.966198 -73.388523 359.840637 -73.388523 Z M 359.840637 -73.388523 " transform="matrix(0.031253,0,0,0.031253,0,6.719392)"/>
<path style="fill:none;stroke-width:3;stroke-linecap:butt;stroke-linejoin:round;stroke:rgb(12.941177%,12.941177%,12.941177%);stroke-opacity:1;stroke-miterlimit:4;" d="M 105.86489 -105.135492 L 148.110856 -105.135492 C 153.985295 -105.135492 158.734842 -100.385945 158.734842 -94.636494 L 158.734842 117.093287 C 158.734842 122.967726 153.985295 127.717272 148.110856 127.717272 L 105.86489 127.717272 C 99.990451 127.717272 95.240905 122.967726 95.240905 117.093287 L 95.240905 -94.636494 C 95.240905 -100.385945 99.990451 -105.135492 105.86489 -105.135492 Z M 105.86489 -105.135492 " transform="matrix(0.031253,0,0,0.031253,0,6.719392)"/>
<path style="fill:none;stroke-width:3;stroke-linecap:butt;stroke-linejoin:round;stroke:rgb(12.941177%,12.941177%,12.941177%);stroke-opacity:1;stroke-miterlimit:4;" d="M 190.48181 0.604411 L 232.852764 0.604411 C 238.727203 0.604411 243.476749 5.353957 243.476749 11.228396 L 243.476749 117.093287 C 243.476749 122.967726 238.727203 127.717272 232.852764 127.717272 L 190.48181 127.717272 C 184.607371 127.717272 179.857824 122.967726 179.857824 117.093287 L 179.857824 11.228396 C 179.857824 5.353957 184.607371 0.604411 190.48181 0.604411 Z M 190.48181 0.604411 " transform="matrix(0.031253,0,0,0.031253,0,6.719392)"/>
</g>
</svg>
